X:14
T:Polska
R:polska K1
S:Sofia Karlsson
A:Dalarna
Z:hn-k1-14
M:3/4
K:D
{ba}b2 bg/b/ {ab}a2|Se>e a>b {ab}a>g|g2 f/g/f/e/ d>c|
B2 bg/b/ {ab}a2|Se>e a>b a>g|Sg>f f4:|
|:{fg}f2 d(3c/d/e/ f>g|{fg}f2 dg {a}b2|b2 a(3b/a/f/ a>g|e2 dc {AB}A2|
{fg}f2 d(3c/d/e/ f>g|{fg}f2 dg {a}b2|b2 a(3b/a/f/ a>g|Se<c d4:|
<end>
<start>
